!!!COM:	la Rue, Pierre de
!!!CDT:	~1452///-1518/11/20
!!!OTL:	Salve regina IV
!!!AGN:	Motet
!!!SCT:	Rue2024
!!!SCA:	Rue2024
!!!voices:	4
**kern	**kern	**kern	**kern
*staff4	*staff3	*staff2	*staff1
*Ivox	*Ivox	*Ivox	*Ivox
*I"Bassus	*I"Tenor	*I"Contra	*I"Discantus
*I'B	*I'T	*I'C	*I'D
*>[A,B,C,D]	*>[A,B,C,D]	*>[A,B,C,D]	*>[A,B,C,D]
*>A	*>A	*>A	*>A
*clefF4	*clefGv2	*clefG2	*clefG2
*k[]	*k[]	*k[]	*k[]
*M3/1	*M3/1	*M3/1	*M3/1
*met(O)	*met(O)	*met(O)	*met(O)
!!section: Vita dulcedo
!!!OMD: Vita dulcedo
=1-	=1-	=1-	=1-
0.r	0.r	1a	0ee
.	.	1g	.
.	.	1a	1ee
=2	=2	=2	=2
0.r	1r	1d	1ff
.	1e	1r	2ee\
.	.	.	2.ee\
.	2.c\	2r	.
.	.	.	4dd\
.	.	[2a/	2cc\
.	4d\	.	.
=3	=3	=3	=3
0.r	1e	2a/]	1b
.	.	2g/	.
.	0A	2f/	1a
.	.	4e/	.
.	.	4d/	.
.	.	[1e	1r
=4	=4	=4	=4
0.r	1r	1e]	1ee
.	2r	2f/	2dd\
.	1e	2g/	2.gg\
.	.	2e/	.
.	.	.	4ff\
.	2d\	[2a/	[2ff\
=5	=5	=5	=5
1A	2c\	4a/]	4ff\]
.	.	4g/	4ee\
.	4B\	4e/	2.ee\
.	4A/	4f/	.
1G	1B	2.g/	.
.	.	.	4dd\
.	.	.	1dd
.	.	4f/	.
1A	[1A	1e	.
.	.	.	2cc#i\
=6	=6	=6	=6
0D	2A/]	0d	0dd
.	2B\	.	.
.	2A/	.	.
.	2B\	.	.
[1A	2c\	1r	1r
.	[2e\	.	.
=7	=7	=7	=7
1A]	4e\]	1r	1cc
.	4d\	.	.
.	2c\	.	.
2.G\	2B\	1r	2dd\
.	1A	.	1ee
4F\	.	.	.
1E	.	1c	.
.	2G/	.	2gg\
=8	=8	=8	=8
1D	1A	2d/	2ff\
.	.	2f/	2dd\
1C	2r	2e/	2ee\
.	2e\	1a	4dd\
.	.	.	4cc\
2D\	2f\	.	1b
2E\	2e\	2g/	.
=9	=9	=9	=9
1F	2.c\	1a	2a/
.	.	.	2cc\
.	4d\	.	.
2G\	2e\	1r	2b\
2F\	2f\	.	2.a/
2G\	2d\	1r	.
.	.	.	4g/
[2A\	4c\	.	[2e/
.	4d\	.	.
=10	=10	=10	=10
2A\]	4e\	1r	2e/]
.	4f\	.	.
2G\	2g\	.	2.b\
1A	2e\	1r	.
.	.	.	4a/
.	1f	.	1a
1B-i	.	1d	.
.	4e\	.	2g/
.	4d\	.	.
=11	=11	=11	=11
0.A	0c	0e	0a
.	2c\	2f/	1r
.	[2A/	2e/	.
=12	=12	=12	=12
0.r	4A/]	4c/	1ee
.	4B\	4d/	.
.	4c\	4e/	.
.	4d\	4f/	.
.	2e\	2g/	1ee
.	2c\	1a	.
.	1B	.	1dd
.	.	2g#i/	.
=13	=13	=13	=13
1r	1A	2.a/	1cc
.	.	4f/	.
2r	2r	2g/	2b\
2D\	2F/	2a/	2a/
2E\	2G/	2g/	2cc\
2F\	2A/	2f/	2dd\
=14	=14	=14	=14
2G\	2B\	2e/	2ee\
2E\	2G/	4cc\	2gg\
.	.	4b\	.
2F\	2A/	2a/	2ff\
2G\	2B\	1g	2.ee\
1A	1c	.	.
.	.	.	4dd\
.	.	2f#i/	2cc\
=15	=15	=15	=15
0G	0d	0g	0b
1G	1d	1g	1r
=16	=16	=16	=16
1A	1c	1e	0cc
0F	1.A	0f	.
.	.	.	1a
.	4B\	.	.
.	4A/	.	.
=17	=17	=17	=17
1G	0B	1d	0g
0E	.	0e	.
.	1r	.	1g
=18	=18	=18	=18
0.D	1d	1f	2.a/
.	.	.	4g/
.	2d\	0a	1f
.	4c\	.	.
.	4B\	.	.
.	2.A/	.	1f
.	4B\	.	.
=19	=19	=19	=19
0.r	4c\	1g	1e
.	4d\	.	.
.	1e	.	.
.	.	2e/	1b
.	2d\	2f/	.
.	2e\	2g/	1cc
.	2A/	[2a/	.
=20	=20	=20	=20
1r	2B\	4a/]	2b\
.	.	4g/	.
.	2c\	4f/	1ee
.	.	4e/	.
1D	1d	1f	.
.	.	.	2dd\
2.A\	2.c\	1e	2ee\
.	.	.	[2a/
4B\	4d\	.	.
=21	=21	=21	=21
2c\	2e\	0.r	2a/]
2d\	1f	.	2b\
2A\	.	.	2cc\
2c\	1e	.	1a
1B	.	.	.
.	2d\	.	2g/
=22	=22	=22	=22
1A	1e	2r	2a/
.	.	2a/	2e/
2r	2r	2g/	2r
2A\	1e	2cc\	2a/
2E\	.	4b\	2g/
.	.	2g/	.
2A\	2c\	.	2cc\
.	.	4f#i/	.
=23	=23	=23	=23
2G\	2d\	0g	2b\
1c	2e\	.	1ee
.	2c\	.	.
2B\	2d\	.	1dd
2.G\	1B	1g	.
.	.	.	[2gg\
4F\	.	.	.
=24	=24	=24	=24
2E\	2G/	2g/	4gg\]
.	.	.	4ee\
2D\	2d\	1a	2.ff\
2F\	2A/	.	.
.	.	.	4dd\
2G\	2B\	4g/	2.ee\
.	.	4f/	.
1A	2.c\	1e	.
.	.	.	4b\
.	.	.	2cc#i\
.	4B\	.	.
=25	=25	=25	=25
2F\	2A/	[0.dl	[0.ddl
2G\	2.d\	.	.
2.B-i\	.	.	.
.	4c\	.	.
.	4B-i\	.	.
4c\	4A/	.	.
1d	1B-i	.	.
=26	=26	=26	=26
0.Dl	0.Al	0.d]	0.dd]
!!LO:LB:i:g=z
=27||	=27||	=27||	=27||
*>B	*>B	*>B	*>B
*clefF4	*clefGv2	*clefG2	*clefG2
*k[]	*k[]	*k[]	*k[]
*M2/1	*M2/1	*M2/1	*M2/1
*met(C2)	*met(C2)	*met(C2)	*met(C2)
!!section: Ad te suspiramus
!!!OMD: Ad te suspiramus
0D	1.d	0r	0r
.	4c\	.	.
.	4B\	.	.
=28.	=28.	=28.	=28.
1F	1A	0d	0r
1G	1B	.	.
=29	=29	=29	=29
1A	2.c\	1f	0r
.	4d\	.	.
1E	1B	1g	.
=30.	=30.	=30.	=30.
1r	1A	0a	0r
1c	2r	.	.
.	2A/	.	.
=31	=31	=31	=31
1B	1d	0r	0r
2G\	2B\	.	.
[2A\	[2c\	.	.
=32.	=32.	=32.	=32.
4A\]	4c\]	1r	0r
4G\	4B\	.	.
4F\	4A/	.	.
4E\	4G/	.	.
1F	1A	1cc	.
=33	=33	=33	=33
1G	1B	1b	0r
2E\	1c	2g/	.
[2F\	.	[2a/	.
=34.	=34.	=34.	=34.
4F\]	0A	4a/]	0r
4E\	.	4g/	.
4D\	.	4f/	.
4C/	.	4e/	.
1D	.	1f	.
=35	=35	=35	=35
2.E\	2.G/	1g	0r
4F\	4A/	.	.
2G\	2B\	2e/	.
[2A\	[2c\	[2f/	.
=36.	=36.	=36.	=36.
4A\]	2c\]	4f/]	0r
4E\	.	4e/	.
2G\	1B	4d/	.
.	.	4c/	.
1F	.	1d	.
.	2A/	.	.
=37	=37	=37	=37
1E	1B	[0e	0r
2r	2r	.	.
[2A\	[2c\	.	.
=38.	=38.	=38.	=38.
2A\]	2c\]	0e]	0r
2G\	2B\	.	.
2A\	2c\	.	.
[2G\	4B\	.	.
.	4A/	.	.
=39	=39	=39	=39
2G\]	2G/	1r	0r
4F\	1c	.	.
4E\	.	.	.
1D	.	1d	.
.	2B\	.	.
=40.	=40.	=40.	=40.
1C	0c	1e	0r
4C/	.	[1g	.
4D\	.	.	.
4E\	.	.	.
4F\	.	.	.
=41	=41	=41	=41
2G\	1r	2g/]	0r
2A\	.	4f/	.
.	.	4e/	.
2D\	1d	2f/	.
2G\	.	2d/	.
=42.	=42.	=42.	=42.
1.C	1e	4c/	0r
.	.	4d/	.
.	.	4e/	.
.	.	4f/	.
.	[1g	2e/	.
2BB/	.	[2d/	.
=43	=43	=43	=43
1C	2g\]	2d/]	0r
.	4f\	1c	.
.	4e\	.	.
1D	2f\	.	.
.	4e\	2B/	.
.	4d\	.	.
=44.	=44.	=44.	=44.
0C	2e\	2c/	0r
.	2.c\	2.e/	.
.	4d\	4f/	.
.	4e\	4g/	.
.	4f\	4a/	.
=45	=45	=45	=45
1r	2e\	2g/	0r
.	1d	1f	.
1D	.	.	.
.	[2c\	[2a/	.
=46.	=46.	=46.	=46.
1D	2c\]	2a/]	0r
.	2B\	4g/	.
.	.	4f/	.
1C	1c	1e	.
=47	=47	=47	=47
1F	2r	0r	0r
.	1c	.	.
1E	.	.	.
.	2B\	.	.
=48.	=48.	=48.	=48.
1F	2A/	0r	0r
.	1d	.	.
1G	.	.	.
.	4c\	.	.
.	4B\	.	.
=49	=49	=49	=49
1A	2c\	1r	0r
.	1A	.	.
2F\	.	1d	.
[2G\	[2B-i\	.	.
=50.	=50.	=50.	=50.
4G\]	4B-\]	1d	0r
4F\	4A/	.	.
4E\	4G/	.	.
4D\	4F/	.	.
1E	2.G/	1c	.
.	4A/	.	.
=51	=51	=51	=51
1D	4B-i\	1f	0r
.	4A/	.	.
.	1d	.	.
1AA	.	1e	.
.	2c#i\	.	.
=52.	=52.	=52.	=52.
0r	1d	1f	0r
.	2r	1g	.
.	2e\	.	.
=53	=53	=53	=53
0r	2f\	1a	0r
.	2f\	.	.
.	2d\	2f/	.
.	[2e\	[2g/	.
=54.	=54.	=54.	=54.
1r	4e\]	4g/]	0r
.	4d\	4f/	.
.	4c\	4e/	.
.	4B\	4d/	.
1A	2c\	1e	.
.	4d\	.	.
.	4c#i\	.	.
=55	=55	=55	=55
2.D\	1d	0d	0r
4E\	.	.	.
2F\	2r	.	.
[2G\	2d\	.	.
=56.	=56.	=56.	=56.
4G\]	1d	1r	0r
4A\	.	.	.
4B-i\	.	.	.
4G\	.	.	.
1A	1c	2r	.
.	.	2a/	.
=57	=57	=57	=57
1D	1f	1a	0r
2r	1e	1g	.
2G\	.	.	.
=58.	=58.	=58.	=58.
2A\	1f	1cc	0r
2A\	.	.	.
2G\	1g	2b\	.
2C/	.	[2cc\	.
=59	=59	=59	=59
2.F\	1a	4cc\]	0r
.	.	4b\	.
.	.	4a/	.
4E\	.	4g/	.
2D\	2f\	2a/	.
[2G\	[2g\	[2b-\	.
=60.	=60.	=60.	=60.
4G\]	4g\]	4b-\]	0r
4A\	4f\	4a/	.
2B-i\	4e\	2.dd\	.
.	4d\	.	.
1A	1e	.	.
.	.	4cc#i\	.
.	.	4cc#i\	.
.	.	8bni\L	.
.	.	8cc#i\J	.
=61	=61	=61	=61
0D	[0dl	[0ddl	0r
=62.	=62.	=62.	=62.
0Dl	0d]	0dd]	0r
!!LO:LB:i:g=z
=63||	=63||	=63||	=63||
*>C	*>C	*>C	*>C
*clefF4	*clefGv2	*clefG2	*clefG2
*k[]	*k[]	*k[]	*k[]
*M3/1	*M3/1	*M3/1	*M3/1
*met(O)	*met(O)	*met(O)	*met(O)
!!section: Et Jesum
!!!OMD: Et Jesum
!	!	!	!LO:TX:X=80:Z=28:t=S&colon; quotation from discantus of
!	!	!	!LO:TX:i:X=80:Z=8:t=Je ne vis oncques la pareille
0.r	1.f	0d	1.a
.	4e\	.	2b\
.	4d\	.	.
.	1e	1A	1cc
=64	=64	=64	=64
1r	1.d	2.B/	1dd
.	.	4c/	.
0D	.	1d	1.ff
.	4c\	.	.
.	4B\	.	.
.	1A	1d	.
.	.	.	2ee\
=65	=65	=65	=65
0AA	2r	1e	1ee
.	1A	.	.
.	.	2.f/	1cc
.	2c\	.	.
.	.	4e/	.
1BB	2B\	1d	1dd
.	[2G/	.	.
=66	=66	=66	=66
0C	4G/]	0c	2.ee\
.	8F/L	.	.
.	8G/J	.	.
.	2A/	.	.
.	.	.	4ff\
.	2G/	.	2gg\
.	2e\	.	2gg\
1D	4d\	1r	2ff\
.	4c\	.	.
.	4B\	.	4ee\
.	4A/	.	4dd\
=67	=67	=67	=67
1E	2G/	1g	1cc
.	2e\	.	.
2.F\	4d\	0f	1r
.	4c\	.	.
.	1c	.	.
4E\	.	.	.
1D	.	.	1dd
.	2B\	.	.
=68	=68	=68	=68
0C	0c	0e	1ee
.	.	.	1cc
1r	2r	[1d	1ff
.	2d\	.	.
=69	=69	=69	=69
0.r	1f	1d]	1ff
.	1.c	1e	1.ee
.	.	[1g	.
.	4B\	.	2dd\
.	4A/	.	.
=70	=70	=70	=70
1G	1B	2g/]	1.dd
.	.	4f/	.
.	.	4e/	.
2.F\	0A	2d/	.
.	.	2f/	2cc\
4G\	.	.	.
1A	.	1e	2cc\
.	.	.	2b\
=71	=71	=71	=71
2.D\	2B-i\	[0.d	1dd
.	1A	.	.
4E\	.	.	.
2F\	.	.	2a/
2G\	2G/	.	2b-i\
2F\	[1A	.	2a/
[2D\	.	.	[2f/
=72	=72	=72	=72
4D\]	1A]	0d]	4f/]
4E\	.	.	4g/
2F\	.	.	2a/
1G	1r	.	4b-i\
.	.	.	4a/
.	.	.	4g/
.	.	.	4f/
1A	2r	1c#i	1e
.	2e\	.	.
=73	=73	=73	=73
2D\	2.f\	1d	2d/
2F\	.	.	2a/
.	4e\	.	.
2G\	2d\	1r	2b-i\
2A\	2c\	.	1a
2D\	1B	1r	.
2E\	.	.	2g/
=74	=74	=74	=74
2.F\	2A/	0.r	0a
.	2f\	.	.
4G\	.	.	.
2A\	4e\	.	.
.	4d\	.	.
2F\	1d	.	.
1E	.	.	1r
.	2c#i\	.	.
=75	=75	=75	=75
0.D	1d	1r	1.d
.	0A	1d	.
.	.	.	2e/
.	.	1a	1f
=76	=76	=76	=76
1r	1r	1b-i	1g
1D	2r	1a	2a/
.	1d	.	2f/
1A	.	1a	1e
.	2c\	.	.
=77	=77	=77	=77
0B-i	1d	1g	0d
.	2d\	0f	.
.	2.f\	.	.
2A\	.	.	2r
.	4e\	.	.
2A\	4d\	.	2a/
.	4c\	.	.
=78	=78	=78	=78
1G	1B-i	1g	1b-i
1F	2A/	1r	2.cc\
.	2c\	.	.
.	.	.	4b-i\
1G	4B-i\	2r	1g
.	4A/	.	.
.	2B-i\	2d/	.
=79	=79	=79	=79
2r	2A/	2e/	2a/
2D\	2d\	2f/	2b-i\
2E\	2c\	2g/	2cc\
2F\	2A/	1f	2.dd\
1G	1B-i	.	.
.	.	.	4cc\
.	.	2e/	4b-i\
.	.	.	4a/
=80	=80	=80	=80
2.F\	4c\	2f/	2.a/
.	4B-i\	.	.
.	4A/	4F/	.
4E\	4G/	4G/	4b-i\
2D\	2F/	4A/	4a/
.	.	4B/	8g/L
.	.	.	8f/J
2C/	1G	1c	2e/
1D	.	.	2.f/
.	2F/	2B/	.
.	.	.	4e/
=81	=81	=81	=81
0C	1G	1c	1e
.	2G/	2c/	1r
.	1c	2.e/	.
1E	.	.	1r
.	.	4f/	.
.	2B\	2g/	.
=82	=82	=82	=82
0F	1.A	2a/	1.cc
.	.	2.f/	.
.	.	4e/	.
.	4G/	1d	2dd\
.	4F/	.	.
1E	1G	.	1ee
.	.	2c#i/	.
=83	=83	=83	=83
0.D	1A	0.d	1.ff
.	2r	.	.
.	2A/	.	2ee\
.	2B\	.	1dd
.	[2A/	.	.
=84	=84	=84	=84
1r	4A/]	2r	2cc\
.	4B\	.	.
.	2c\	2a/	2a/
1r	2d\	2f/	1b-i
.	2e\	2g/	.
[1D	2A/	1a	2.a/
.	[2d\	.	.
.	.	.	4g/
=85	=85	=85	=85
1D]	2d\]	2r	1f
.	2c\	2.a/	.
1E	1B	.	1e
.	.	4f/	.
.	.	2g/	.
2.F\	1A	1a	2r
.	.	.	2a/
4G\	.	.	.
=86	=86	=86	=86
4A\	2r	1r	2f/
4B-i\	.	.	.
2G\	2B-i\	.	2g/
1F	2c\	1r	1a
.	1d	.	.
2G\	.	2r	2b-i\
2A\	2c\	2a/	[2a/
=87	=87	=87	=87
1B-i	1d	2f/	2a/]
.	.	2g/	2dd\
2.A\	0e	1a	2.cc\
4B-i\	.	.	4dd\
2c\	.	2r	2.ee\
2A\	.	2a/	.
.	.	.	4dd\
=88	=88	=88	=88
2d\	2r	2f/	2dd\
2c\	2e\	2g/	2gg\
2F\	2c\	[0al	2ff\
2D\	2d\	.	4ee\
.	.	.	4dd\
1A	1e	.	2.cc#i\
.	.	.	4b\
=89	=89	=89	=89
0.Dl	0.dl	0.a]	0.ddl
!!LO:LB:i:g=z
=90||	=90||	=90||	=90||
*>D	*>D	*>D	*>D
*clefF4	*clefGv2	*clefG2	*clefG2
*k[]	*k[]	*k[]	*k[]
*M2/1	*M2/1	*M2/1	*M2/1
*met(C2)	*met(C2)	*met(C2)	*met(C2)
!!section: O pia
!!!OMD: O pia
*	*	*rscale:1/2	*
!	!	!LO:N:vis=0	!
1r	2.A/	[y0a	0r
.	4B\	.	.
2.A\	2c\	.	.
.	2d\	.	.
4B\	.	.	.
=91.	=91.	=91-	=91.
2c\	2e\	0a]yy	1ryy
1d	1f	.	.
.	.	.	2.a/
4c\	4e\	.	.
4B\	4d\	.	4b\
=92	=92	=92-	=92
2.A\	1c	0a	2cc\
.	.	.	2dd\
4B\	.	.	.
4c\	1r	.	2ee\
4A\	.	.	.
[y2d\	.	.	[y2ff\
=93.	=93.	=93	=93.
4d\]yy	1ryy	0b-i	4ff\]yy
4c\	.	.	4ee\
4B-i\	.	.	4dd\
4A\	.	.	4cc\
1G	2r	.	1dd
.	[2g\	.	.
=94	=94	=94-	=94
!	!	!LO:N:vis=0	!
0A	4g\]	[y0a	0cc
.	4f\	.	.
.	2.f\	.	.
.	4e\	.	.
.	[y2e\	.	.
=95.	=95.	=95-	=95.
1F	2e\]yy	0a]yy	0r
.	4d\	.	.
.	4c\	.	.
1F	1d	.	.
=96	=96	=96	=96
0E	0e	0g	1r
.	.	.	2r
.	.	.	[y2gg\
=97.	=97.	=97-	=97.
1D	[0A	1a	4gg\]yy
.	.	.	4ff\
.	.	.	2.ff\
1C	.	1e	.
.	.	.	4ee\
.	.	.	[2ee\
=98	=98	=98-	=98
0D	0A]	0f	2ee\]
.	.	.	4dd\
.	.	.	4cc\
.	.	.	1dd
=99.	=99.	=99	=99.
!	!	!LO:N:vis=0	!
2r	1r	[y0e	0ee
2.A\	.	.	.
.	2r	.	.
4B\	.	.	.
4c\	[2c\	.	.
4d\	.	.	.
=100	=100	=100-	=100
2e\	4c\]	0e]yy	1r
.	4d\	.	.
2A\	4e\	.	.
.	4f\	.	.
2G\	2g\	.	2r
[y2A\	2e\	.	[y2cc\
=101.	=101.	=101-	=101.
2A\]yy	2f\	1a	4cc\]yy
.	.	.	4dd\
4G\	2e\	.	4ee\
4F\	.	.	4ff\
1E	1c	1g	2gg\
.	.	.	2ee\
=102	=102	=102	=102
2D\	2r	1.a	2ff\
1A	2e\	.	2ee\
.	2f\	.	2cc\
[y2c\	2e\	2g/	[y2ee\
=103.	=103.	=103-	=103.
2c\]yy	2c\	0e	2ee\]yy
2B\	2d\	.	1dd
1A	1e	.	.
.	.	.	2cc#i\
=104	=104	=104-	=104
1D	1d	0f	0dd
2r	2r	.	.
2d\	2f\	.	.
=105.	=105.	=105	=105.
2c\	2e\	0g	0r
4B-i\	2c\	.	.
4A\	.	.	.
2B-\	2d\	.	.
4A\	4c\	.	.
4G\	4B-i\	.	.
=106	=106	=106-	=106
!	!	!LO:N:vis=0	!
0F	0A	[y0a	1r
.	.	.	2r
.	.	.	2ff\
=107.	=107.	=107-	=107.
2r	2r	0a]yy	2ee\
2.F\	1f	.	2cc\
.	.	.	2dd\
4G\	.	.	.
2A\	2e\	.	4cc\
.	.	.	4b-i\
=108	=108	=108	=108
2F\	2.f\	0d	0a
2.D\	.	.	.
.	4e\	.	.
.	2d\	.	.
4E\	.	.	.
4F\	4c\	.	.
4G\	4B-i\	.	.
=109.	=109.	=109-	=109.
2A\	0A	0c	2r
2.F\	.	.	1ff
4G\	.	.	.
2A\	.	.	2ee\
=110	=110	=110-	=110
0D	2r	0d	2.ff\
.	2A/	.	.
.	.	.	4ee\
.	2B-\	.	2dd\
.	[y2d\	.	4cc\
.	.	.	4b-i\
=111.	=111.	=111	=111.
1D	2d\]yy	0f	0a
.	2A/	.	.
1D	4d\	.	.
.	4c\	.	.
.	4B\	.	.
.	4A/	.	.
=112	=112	=112-	=112
!	!	!LO:N:vis=0	!
1E	4G/	[y0e	0r
.	4A/	.	.
.	4B\	.	.
.	4c\	.	.
2G\	2B\	.	.
2A\	[y2A/	.	.
=113.	=113.	=113-	=113.
1E	2A/]yy	0e]yy	1ryy
.	2G#i/	.	.
1r	1A	.	2r
.	.	.	2a/
=114	=114	=114	=114
2.G\	2r	[0d	2b-i\
.	2B-i\	.	1dd
4A\	.	.	.
4B-i\	1d	.	.
4c\	.	.	.
2d\	.	.	2a/
=115.	=115.	=115-	=115.
2.G\	2B-i\	0d_	4dd\
.	.	.	4cc\
.	2.d\	.	4b-i\
4A\	.	.	4a/
2B-i\	.	.	4g/
.	4c\	.	4a/
[2G\	4B-i\	.	4b-i\
.	4A/	.	4cc\
=116	=116	=116-	=116
2G\]	2G/	0d_	2b-i\
2F\	2A/	.	2.a/
1G	1B-i	.	.
.	.	.	4g/
.	.	.	2g/
=117.	=117.	=117	=117.
2r	2r	0d]	2a/
2D\	2B-i\	.	2f/
1G	1B-i	.	1g
=118	=118	=118-	=118
0Dl	0Al	0dl	0fl
*	*	*rscale:1	*
==	==	==	==
*-	*-	*-	*-
!!!RDF**kern: l=long note in original notation
!!!RDF**kern: i=editorial accidental
!!!ENC:	Chris Gage 02-12-2013
!!!END:	2013/05/04/
!!!EED:	Jesse Rodin
!!!EEV:	2013/07/20/
!!!ONB:	Translated from MusicXML and edited on 2013/07/20/ by Craig Sapp
!!muse2ps: C^@{COM}^i2I150v85,85,85,150Q8c120
